svg/emoji_u1f929.svg

<?xml version="1.0" encoding="UTF-8" standalone="no"?>
<svg
   width="128"
   height="128"
   version="1.1"
   id="svg15752"
   sodipodi:docname="emoji_u1f929.svg"
   inkscape:version="1.2.2 (732a01da63, 2022-12-09)"
   xmlns:inkscape="http://www.inkscape.org/namespaces/inkscape"
   xmlns:sodipodi="http://sodipodi.sourceforge.net/DTD/sodipodi-0.dtd"
   xmlns:xlink="http://www.w3.org/1999/xlink"
   xmlns="http://www.w3.org/2000/svg"
   xmlns:svg="http://www.w3.org/2000/svg">
  <sodipodi:namedview
     id="namedview15754"
     pagecolor="#ffffff"
     bordercolor="#000000"
     borderopacity="0.25"
     inkscape:showpageshadow="2"
     inkscape:pageopacity="0.0"
     inkscape:pagecheckerboard="0"
     inkscape:deskcolor="#d1d1d1"
     showgrid="false"
     inkscape:zoom="2.9996795"
     inkscape:cx="61.173201"
     inkscape:cy="69.007371"
     inkscape:window-width="1366"
     inkscape:window-height="697"
     inkscape:window-x="-8"
     inkscape:window-y="-8"
     inkscape:window-maximized="1"
     inkscape:current-layer="svg15752" />
  <defs
     id="defs15738">
    <linearGradient
       gradientTransform="translate(0 -6.773)"
       xlink:href="#a"
       id="b"
       x1="95.743"
       y1="70.878"
       x2="95.743"
       y2="82.469"
       gradientUnits="userSpaceOnUse" />
    <linearGradient
       id="a">
      <stop
         offset="0"
         stop-color="#fff"
         id="stop15733" />
      <stop
         offset="1"
         stop-color="#fff"
         stop-opacity=".787"
         id="stop15735" />
    </linearGradient>
  </defs>
  <path
     d="M33.983 64.788c-1 .01-1.794.21-2.525.681h-.002c-.302.195-.547.502-.671 1.381-.125.88-.003 2.216.452 3.733.522 1.74 1.476 3.704 2.738 5.611 6.878 1.122 27.836 3.656 60.168-.18 1.203-1.85 2.115-3.745 2.62-5.431.454-1.517.576-2.855.452-3.735-.124-.88-.37-1.185-.669-1.379-.974-.628-2.061-.774-3.602-.632-1.541.141-3.379.63-5.319 1.011l.002-.002C77.305 67.882 68.27 67.96 64.002 67.96c-4.268 0-13.3-.078-23.623-2.114v.002c-1.94-.382-3.778-.87-5.32-1.011a10.564 10.564 0 0 0-1.076-.05z"
     fill="#fff"
     stroke-width="1.3"
     id="path15740" />
  <path
     d="M63.89 9.64C1.58 9.64.1 79.5.1 93.33c0 13.83 28.56 25.03 63.79 25.03 35.24 0 63.79-11.21 63.79-25.03 0-13.83-1.47-83.69-63.79-83.69z"
     fill="#fcc21b"
     id="path15742" />
  <path
     d="M96.462 62.716c-3.09-2.09-6.98-.71-10.42 0-9.58 1.98-18 2.06-22.04 2.06-4.04 0-12.46-.08-22.04-2.06-3.44-.71-7.33-2.09-10.42 0-3.92 2.65-1.03 12.15 5.14 18.57 3.73 3.88 12.61 11.41 27.32 11.41s23.59-7.53 27.32-11.41c6.17-6.42 9.05-15.92 5.14-18.57z"
     fill="#ec6c31"
     stroke-width="5"
     id="path15744" />
  <g
     stroke-width=".796"
     fill="#a439f4"
     id="g15750">
    <path
       d="M24.94 7.387c-.511.147-.886.59-.943 1.119l-1.791 16.586-15.749 5.94c-.503.19-.832.66-.846 1.197a1.3 1.3 0 0 0 .786 1.234l15.318 6.688.684 16.938c.024.532.368 1 .87 1.185a1.317 1.317 0 0 0 1.425-.367l11.19-12.625 16.198 4.71a1.326 1.326 0 0 0 1.4-.45c.329-.418.375-1 .106-1.465l-8.446-14.692 9.389-13.824c.301-.441.303-1.02.006-1.463a1.323 1.323 0 0 0-1.353-.561l-16.492 3.371L26.335 7.831a1.32 1.32 0 0 0-1.395-.444zM100.516 4.036a1.486 1.486 0 0 1 1.067 1.267l2.027 18.77 17.821 6.72c.57.216.942.747.958 1.355a1.472 1.472 0 0 1-.89 1.396l-17.333 7.569-.775 19.167a1.503 1.503 0 0 1-.984 1.34 1.49 1.49 0 0 1-1.612-.415L88.13 46.92l-18.329 5.33a1.5 1.5 0 0 1-1.585-.509 1.488 1.488 0 0 1-.12-1.658l9.558-16.626-10.624-15.643a1.474 1.474 0 0 1-.007-1.655 1.497 1.497 0 0 1 1.531-.636l18.662 3.816 11.72-14.799a1.493 1.493 0 0 1 1.58-.503z"
       id="path15748" />
  </g>
</svg>

<?xml version="1.0" encoding="UTF-8" standalone="no"?>
<!DOCTYPE svg PUBLIC "-//W3C//DTD SVG 1.1//EN" "http://www.w3.org/Graphics/SVG/1.1/DTD/svg11.dtd">
<svg width="100%" height="100%" viewBox="0 0 128 128" version="1.1" xmlns="http://www.w3.org/2000/svg" xmlns:xlink="http://www.w3.org/1999/xlink" xml:space="preserve" xmlns:serif="http://www.serif.com/" style="fill-rule:evenodd;clip-rule:evenodd;stroke-linejoin:round;stroke-miterlimit:2;">
    <path id="path15740" d="M33.983,64.788C32.983,64.798 32.189,64.998 31.458,65.469L31.456,65.469C31.154,65.664 30.909,65.971 30.785,66.85C30.66,67.73 30.782,69.066 31.237,70.583C31.759,72.323 32.713,74.287 33.975,76.194C40.853,77.316 61.811,79.85 94.143,76.014C95.346,74.164 96.258,72.269 96.763,70.583C97.217,69.066 97.339,67.728 97.215,66.848C97.091,65.968 96.845,65.663 96.546,65.469C95.572,64.841 94.485,64.695 92.944,64.837C91.403,64.978 89.565,65.467 87.625,65.848L87.627,65.846C77.305,67.882 68.27,67.96 64.002,67.96C59.734,67.96 50.702,67.882 40.379,65.846L40.379,65.848C38.439,65.466 36.601,64.978 35.059,64.837C34.701,64.802 34.342,64.785 33.983,64.787L33.983,64.788Z" style="fill:white;fill-rule:nonzero;"/>
    <path id="path15742" d="M63.89,9.64C1.58,9.64 0.1,79.5 0.1,93.33C0.1,107.16 28.66,118.36 63.89,118.36C99.13,118.36 127.68,107.15 127.68,93.33C127.68,79.5 126.21,9.64 63.89,9.64Z" style="fill:rgb(252,194,27);fill-rule:nonzero;"/>
    <path id="path15744" d="M96.462,62.716C93.372,60.626 89.482,62.006 86.042,62.716C76.462,64.696 68.042,64.776 64.002,64.776C59.962,64.776 51.542,64.696 41.962,62.716C38.522,62.006 34.632,60.626 31.542,62.716C27.622,65.366 30.512,74.866 36.682,81.286C40.412,85.166 49.292,92.696 64.002,92.696C78.712,92.696 87.592,85.166 91.322,81.286C97.492,74.866 100.372,65.366 96.462,62.716Z" style="fill:rgb(236,108,49);fill-rule:nonzero;"/>
    <g id="g15750">
        <path id="path15748" d="M24.94,7.387C24.429,7.534 24.054,7.977 23.997,8.506L22.206,25.092L6.457,31.032C5.954,31.222 5.625,31.692 5.611,32.229C5.595,32.762 5.907,33.253 6.397,33.463L21.715,40.151L22.399,57.089C22.423,57.621 22.767,58.089 23.269,58.274C23.773,58.453 24.339,58.307 24.694,57.907L35.884,45.282L52.082,49.992C52.596,50.138 53.15,49.96 53.482,49.542C53.811,49.124 53.857,48.542 53.588,48.077L45.142,33.385L54.531,19.561C54.832,19.12 54.834,18.541 54.537,18.098C54.241,17.657 53.706,17.435 53.184,17.537L36.692,20.908L26.335,7.831C26.003,7.416 25.451,7.24 24.94,7.387ZM100.516,4.036C101.095,4.202 101.518,4.704 101.583,5.303L103.61,24.073L121.431,30.793C122.001,31.009 122.373,31.54 122.389,32.148C122.407,32.751 122.053,33.306 121.499,33.544L104.166,41.113L103.391,60.28C103.362,60.883 102.974,61.412 102.407,61.62C101.836,61.822 101.197,61.658 100.795,61.205L88.13,46.92L69.801,52.25C69.22,52.416 68.592,52.214 68.216,51.741C67.843,51.265 67.795,50.607 68.096,50.083L77.654,33.457L67.03,17.814C66.69,17.317 66.687,16.659 67.023,16.159C67.358,15.659 67.963,15.407 68.554,15.523L87.216,19.339L98.936,4.54C99.312,4.069 99.937,3.87 100.516,4.037L100.516,4.036Z" style="fill:rgb(181,111,193);fill-rule:nonzero;"/>
    </g>
</svg>
